X: 4049
M: C|
L: 1/8
K: D
(udB) |\
fddf gfed | (3(cBA) Bc d2ag |\
fdec dABG | (3(FGF) (3(EFE) D2 |]
(fg) |\
afdf bgec | dcde fdcA |\
defg afdf | bged cdeg |\
fedc edcB | AGFE D2 |]


